X: 33184
T: Prodigal Son, The
R: hornpipe
M: 4/4
K: Gmajor
B>c|d2d>B G>B d>g|b>g d>B A2 A>B|c2 c>A F>A c>d|e>d ^c>d B2 B>=c|
d2d>B G>B d>g|b>g d>B A2 A>B|c2 c>A F>G A>B|A>G G>F G2:|
F>G|A2A>B A>F D>c|B>c d>B g2 f>g|a2a>g f>g f>e|d>e c>d B2 F>G|
A2A>B A>F D>c|B>c d>B g2 f>g|a>g f>e d>c A>F|A>G G>F G2:|

